_/img/docs-white.svg

<svg width="78" height="26" viewBox="0 0 78 26" fill="none" xmlns="http://www.w3.org/2000/svg">
<path d="M9.9 0.498289H0.1V24.9983H9.9C16.655 24.9983 21.8 19.6783 21.8 12.7483C21.8 5.81829 16.655 0.498289 9.9 0.498289ZM9.9 19.6083H5.7V5.88829H9.9C13.75 5.88829 16.41 8.54829 16.41 12.7483C16.41 16.9483 13.75 19.6083 9.9 19.6083ZM33.1736 25.4883C38.3186 25.4883 42.4486 21.4633 42.4486 16.2483C42.4486 11.0333 38.3186 7.00829 33.1736 7.00829C28.0286 7.00829 23.8986 11.0333 23.8986 16.2483C23.8986 21.4633 28.0286 25.4883 33.1736 25.4883ZM33.1736 20.3783C30.8986 20.3783 29.1486 18.7333 29.1486 16.2483C29.1486 13.7633 30.8986 12.1183 33.1736 12.1183C35.4486 12.1183 37.1986 13.7633 37.1986 16.2483C37.1986 18.7333 35.4486 20.3783 33.1736 20.3783ZM53.8182 25.4883C57.2482 25.4883 60.2232 23.7033 61.7282 20.9733L57.1432 18.3483C56.5832 19.5733 55.2882 20.3083 53.7482 20.3083C51.4732 20.3083 49.7932 18.6633 49.7932 16.2483C49.7932 13.8333 51.4732 12.1883 53.7482 12.1883C55.2882 12.1883 56.5482 12.9233 57.1432 14.1483L61.7282 11.4883C60.2232 8.79329 57.2132 7.00829 53.8182 7.00829C48.4982 7.00829 44.5432 11.0333 44.5432 16.2483C44.5432 21.4633 48.4982 25.4883 53.8182 25.4883ZM68.811 12.6083C68.811 11.9783 69.371 11.6283 70.281 11.6283C71.436 11.6283 72.136 12.2583 72.626 13.1683L77.106 10.7533C75.636 8.26829 73.116 7.00829 70.281 7.00829C66.641 7.00829 63.421 8.93329 63.421 12.7483C63.421 18.8033 72.031 17.7883 72.031 19.7133C72.031 20.4133 71.401 20.7983 70.141 20.7983C68.601 20.7983 67.621 20.0633 67.166 18.7333L62.616 21.3233C63.981 24.1583 66.641 25.4883 70.141 25.4883C73.921 25.4883 77.421 23.7733 77.421 19.7483C77.421 13.2733 68.811 14.6033 68.811 12.6083Z" fill="white"/>
</svg>

<svg width="78" height="26" viewBox="0 0 78 26" fill="none" xmlns="http://www.w3.org/2000/svg"><path d="M9.9.498H.1v24.5h9.8c6.755 0 11.9-5.32 11.9-12.25S16.655.498 9.9.498zm0 19.11H5.7V5.888h4.2c3.85 0 6.51 2.66 6.51 6.86s-2.66 6.86-6.51 6.86zm23.274 5.88c5.145 0 9.275-4.025 9.275-9.24s-4.13-9.24-9.275-9.24c-5.145 0-9.275 4.025-9.275 9.24s4.13 9.24 9.275 9.24zm0-5.11c-2.275 0-4.025-1.645-4.025-4.13s1.75-4.13 4.025-4.13c2.275 0 4.025 1.645 4.025 4.13s-1.75 4.13-4.025 4.13zm20.644 5.11c3.43 0 6.405-1.785 7.91-4.515l-4.585-2.625c-.56 1.225-1.855 1.96-3.395 1.96-2.275 0-3.955-1.645-3.955-4.06 0-2.415 1.68-4.06 3.955-4.06 1.54 0 2.8.735 3.395 1.96l4.585-2.66c-1.505-2.695-4.515-4.48-7.91-4.48-5.32 0-9.275 4.025-9.275 9.24s3.955 9.24 9.275 9.24zm14.993-12.88c0-.63.56-.98 1.47-.98 1.155 0 1.855.63 2.345 1.54l4.48-2.415c-1.47-2.485-3.99-3.745-6.825-3.745-3.64 0-6.86 1.925-6.86 5.74 0 6.055 8.61 5.04 8.61 6.965 0 .7-.63 1.085-1.89 1.085-1.54 0-2.52-.735-2.975-2.065l-4.55 2.59c1.365 2.835 4.025 4.165 7.525 4.165 3.78 0 7.28-1.715 7.28-5.74 0-6.475-8.61-5.145-8.61-7.14z" fill="#fff"/></svg>
